X: 40114
T: Tide At The Taing
R: waltz
M: 3/4
K: Fdorian
B,2|:E3 E E2|E2 G2 B2|c3 c c2|1 c2 B2 G2|c3 c c2|c2 B2 G2|
F2 G2 B2|G2 F2 B,2:|2 c3 d e2|c2 B2 G2|F6|E4 B2||
c3 c c2|c2 B2 G2|B3 c B2|B2 c2 d2|e2 d2 c2|B2 G2 F2|
E3 E E2|E2 G2 B2|c3 c c2|c2 B2 G2|c3 d e2|c2 B2 G2|F6|E6||

